X: 8
T:Jack Warrel's Hornpipe
M:9/4
L:1/4
S:Marsden
Z:ps
K:C
A2BcBABAG | AFABAGF2D | B2cdcBcBA | BAGGABA2G || 
F>GA/B/ cBABAG | AFABc/B/ A/G/ F2D || dBGGdGAFD | BAGGABA2G || 
cAFFcFBAG | AFABAGF2D | dBGGdGAFD | BAGGABA2G || 
f2ffAfe2d | cAAA2GF2D | g2ggGgf>ef | e/f/gGGABA2G || 
F>ef/g/agfe2d | d/e/fABAGF2D | G>fg/a/bagagf | e/f/gGGABA2G || 
c/B/ A/G/Fc/B/ A/G/F d/c/B/A/G | AFABAGF2D | d/c/B/A/Gd/c/ B/A/Gc/B/A/G/F | d/c/B/A/GGABA2G || 
FcFcFcBAG | AFABAGF2D | GdGdGdAFA | BAGGABA2G ||
M:3/2
c/B/ A/G/ F/G/ A/F/ G/A/ B/G/ | A/F/ A/B/ c/B/ A/G/ F/G/ A/F/ | d/c/B/A/ G/A/ B/G/ F/G/ A/F/ | G/A/ B/c/ d/c/B/A/ B/c/d/B/ || 
c/A/ F/A/ c/A/ F/A/ d/B/ G/B/ | c/A/ F/A/ B/A/G/A/ F>D | d/B/ G/B/ d/B/ G/B/ c/A/ F/A/ | d/B/ G/B/ d/B/ G/B/ d/B/ G/B/ || 
c/A/ F/A/ c/A/ F/A/ d/B/ G/B/ | c/A/ F/A/ B/A/ G/B/ F>D | B/c/ d d/c/ BA2 | B/G/G G>A A>G ||
M:9/4
L:1/4 
f2ff>g f/g/e2d | cAAA2GF2D | g2gg>ag^f>ef | g2GG>ABA2G || 
f>gaagfe2d | cAAA2GF2D | B>cddcBA3 | BGGG2BA2G || 
cAFABcGBd | FAcBAGF2D | dBGB>cdD3 | BGGG2AA2G || 
cAFFAcGBd | FAcBAGF2D | B>cdde/d/c/B/A3 | BGGG2AA2G || 

